docs/img/icons/whatsapp.svg

<svg width="23" height="23" viewBox="0 0 23 23" fill="none" xmlns="http://www.w3.org/2000/svg">
<path fill-rule="evenodd" clip-rule="evenodd" d="M19.127 3.84108C17.1098 1.82144 14.427 0.708704 11.5688 0.70752C5.67943 0.70752 0.886305 5.50052 0.883936 11.3915C0.883146 13.2747 1.37509 15.113 2.31016 16.7333L0.794312 22.27L6.45855 20.7842C8.01928 21.6355 9.77636 22.0842 11.5645 22.0847H11.569C17.4577 22.0847 22.2514 17.2913 22.2536 11.4001C22.2548 8.54498 21.1444 5.86059 19.127 3.84108ZM11.5688 20.2803H11.5652C9.97167 20.2796 8.40883 19.8513 7.04512 19.0424L6.72097 18.8498L3.35973 19.7316L4.25689 16.4544L4.04566 16.1184C3.15666 14.7045 2.68722 13.0702 2.68801 11.3922C2.68985 6.49573 6.67386 2.51212 11.5724 2.51212C13.9445 2.5129 16.1743 3.43784 17.851 5.11649C19.5277 6.79514 20.4505 9.0264 20.4497 11.3994C20.4476 16.2962 16.4638 20.2803 11.5688 20.2803ZM16.4402 13.629C16.1733 13.4952 14.8606 12.8496 14.6158 12.7604C14.3713 12.6713 14.1931 12.6269 14.0153 12.8941C13.8372 13.1612 13.3257 13.7627 13.1698 13.9407C13.014 14.1189 12.8585 14.1413 12.5914 14.0076C12.3244 13.874 11.4642 13.592 10.4444 12.6824C9.65081 11.9745 9.11504 11.1003 8.95921 10.8331C8.80365 10.5657 8.9579 10.4351 9.07634 10.2882C9.36535 9.92936 9.65476 9.55309 9.74372 9.37503C9.83282 9.19683 9.78821 9.04088 9.72135 8.9073C9.65476 8.77372 9.12083 7.45962 8.89841 6.9249C8.68152 6.40453 8.46161 6.4748 8.29762 6.46664C8.14207 6.45888 7.964 6.4573 7.78594 6.4573C7.608 6.4573 7.31873 6.52402 7.07394 6.79145C6.82928 7.05874 6.13966 7.70454 6.13966 9.01864C6.13966 10.3327 7.09632 11.6022 7.22976 11.7804C7.36321 11.9586 9.1124 14.6552 11.7905 15.8115C12.4275 16.0869 12.9247 16.251 13.3125 16.374C13.9521 16.5772 14.534 16.5485 14.9941 16.4798C15.5071 16.4031 16.5735 15.8339 16.7962 15.2104C17.0186 14.5867 17.0186 14.0522 16.9517 13.9407C16.8851 13.8294 16.7071 13.7627 16.4402 13.629Z" fill="white"/>
</svg>

<svg width="23" height="23" fill="none" xmlns="http://www.w3.org/2000/svg"><path fill-rule="evenodd" clip-rule="evenodd" d="M19.127 3.841A10.615 10.615 0 0011.569.708C5.679.708.886 5.5.884 11.392c0 1.883.491 3.721 1.426 5.341L.794 22.27l5.665-1.486c1.56.852 3.317 1.3 5.106 1.3h.004c5.889 0 10.682-4.793 10.685-10.684a10.62 10.62 0 00-3.127-7.559zm-7.558 16.44h-.004a8.871 8.871 0 01-4.52-1.239l-.324-.192-3.361.882.897-3.278-.211-.336a8.858 8.858 0 01-1.358-4.726c.002-4.896 3.986-8.88 8.884-8.88a8.82 8.82 0 016.279 2.604A8.828 8.828 0 0120.45 11.4c-.002 4.897-3.986 8.881-8.881 8.881zm4.871-6.652c-.267-.134-1.58-.78-1.824-.869-.245-.089-.423-.133-.6.134-.179.267-.69.869-.846 1.047-.156.178-.312.2-.579.067-.267-.134-1.127-.416-2.147-1.326-.793-.707-1.329-1.582-1.485-1.849-.155-.267-.001-.398.117-.545.29-.359.579-.735.668-.913.089-.178.044-.334-.023-.468-.066-.133-.6-1.447-.823-1.982-.216-.52-.436-.45-.6-.458-.156-.008-.334-.01-.512-.01a.98.98 0 00-.712.334c-.245.268-.934.914-.934 2.228s.956 2.583 1.09 2.761c.133.179 1.882 2.875 4.56 4.032.638.275 1.135.439 1.523.562.64.203 1.221.175 1.681.106.513-.077 1.58-.646 1.802-1.27.223-.623.223-1.158.156-1.27-.067-.11-.245-.177-.512-.311z" fill="#fff"/></svg>
